X:325
T: "Heinrich der Loewe"
N: Z1005
O: Europa, Mitteleuropa, Deutschland
R: Romanze, Ballade
M: 4/4
L: 1/8
K: C
C2 | C4E2G2 | G6G2 | G2D2E2^F2 | G4
D2E2 | F2GGG2F2 | E4E2E2 | E4D4 | C4z2
E^F | G3GG2F2 | F4E2E2 | D4E4 | D4z2
C2 | C4E2G2 | G6G2 | G2D2E2^F2 | G4
D2E2 | F2GGG2F2 | E4E2E2 | E4D4 | C4z2
E^F | G3GG2F2 | F4E2E2 | D4E4 | D4z2
C2 | E2E2F2G2 | A2G2F2E2 | D4E4 | F4z2
E2 | E2E2F2E2 | D4D4 | C6
C2 | E2E2F2GA | G2F2E2DE | ^F4G4 | G4z2
G2 | G2G2F2E^F | G2F2E2D2 | E4
E2E2 | E2F2G2A2 | G4F2E2 | ^F4G4 | G4
G2G2 | G4G2E2 | F2G2F2EF | E6
E2 | E2E2F2G2 | A2G2F2E2 | F8 | G4
G2G2 | G4G2E2 | F4G2F2 | E4F4 | E6
E2 | D2E2F2G2 | F4E4 | E8 | E4
D2C2 | C2C2C2EE | D2E^FG2C2 | C4CB,CG, | G,2C2z2
C2 | E2C2E2^FF | G4z2
ED | EFG2F2F2 | E2E2E2DE | D4z2

